assets/accessible.svg

<?xml version="1.0" encoding="UTF-8"?>
<svg width="14px" height="20px" viewBox="0 0 14 20" version="1.1" xmlns="http://www.w3.org/2000/svg" xmlns:xlink="http://www.w3.org/1999/xlink">
    <!-- Generator: Sketch 47.1 (45422) - http://www.bohemiancoding.com/sketch -->
    <title>Mask</title>
    <desc>Created with Sketch.</desc>
    <defs>
        <path d="M14,11 L14,9 C12.46,9.02 10.91,8.25 9.93,7.17 L8.64,5.74 C8.47,5.55 8.26,5.4 8.03,5.29 C8.02,5.29 8.02,5.28 8.01,5.28 L8,5.28 C7.65,5.08 7.25,4.98 6.81,5.02 C5.76,5.11 5,6.04 5,7.09 L5,13 C5,14.1 5.9,15 7,15 L12,15 L12,20 L14,20 L14,14.5 C14,13.4 13.1,12.5 12,12.5 L9,12.5 L9,9.05 C10.29,10.12 12.25,10.99 14,11 Z M7.83,16 L9.9,16 C9.44,18.28 7.42,20 5,20 C2.24,20 0,17.76 0,15 C0,12.58 1.72,10.56 4,10.1 L4,12.17 C2.84,12.59 2,13.69 2,15 C2,16.66 3.34,18 5,18 C6.31,18 7.42,17.16 7.83,16 Z M7,4 C5.8954305,4 5,3.1045695 5,2 C5,0.8954305 5.8954305,0 7,0 C8.1045695,0 9,0.8954305 9,2 C9,3.1045695 8.1045695,4 7,4 Z" id="path-1"></path>
    </defs>
    <g id="Icons" stroke="none" stroke-width="1" fill="none" fill-rule="evenodd">
        <g id="amenitiy-/-accessible" transform="translate(-5.000000, -2.000000)">
            <g id="accessible">
                <g id="Icon-🎨" transform="translate(5.000000, 2.000000)">
                    <mask id="mask-2" fill="white">
                        <use xlink:href="#path-1"></use>
                    </mask>
                    <use id="Mask" fill="#001833" fill-rule="nonzero" xlink:href="#path-1"></use>
                </g>
            </g>
        </g>
    </g>
</svg>

<?xml version="1.0" encoding="utf-8"?>
<!-- Generator: Adobe Illustrator 21.1.0, SVG Export Plug-In . SVG Version: 6.00 Build 0)  -->
<svg version="1.1" id="Layer_1" xmlns="http://www.w3.org/2000/svg" xmlns:xlink="http://www.w3.org/1999/xlink" x="0px" y="0px"
	 viewBox="0 0 14 20" style="enable-background:new 0 0 14 20;" xml:space="preserve">
<style type="text/css">
	.st0{fill:#001833;}
</style>
<path id="path-1_1_" class="st0" d="M14,11V9c-1.5,0-3.1-0.8-4.1-1.8L8.6,5.7C8.5,5.6,8.3,5.4,8,5.3c0,0,0,0,0,0h0
	C7.7,5.1,7.2,5,6.8,5C5.8,5.1,5,6,5,7.1V13c0,1.1,0.9,2,2,2h5v5h2v-5.5c0-1.1-0.9-2-2-2H9V9.1C10.3,10.1,12.2,11,14,11z M7.8,16h2.1
	c-0.5,2.3-2.5,4-4.9,4c-2.8,0-5-2.2-5-5c0-2.4,1.7-4.4,4-4.9v2.1c-1.2,0.4-2,1.5-2,2.8c0,1.7,1.3,3,3,3C6.3,18,7.4,17.2,7.8,16z
	 M7,4C5.9,4,5,3.1,5,2s0.9-2,2-2s2,0.9,2,2S8.1,4,7,4z"/>
</svg>
